icons/arrow-small-top-right.svg

<svg xmlns="http://www.w3.org/2000/svg" width="24" height="24" viewBox="0 0 24 24">
  <path d="M17,6 L17.0193545,6.00018615 C17.0409987,6.00060253 17.062632,6.00171744 17.0842176,6.00353089 L17,6 C17.0523658,6 17.1037915,6.00402505 17.1539846,6.01178265 C17.1611342,6.01296161 17.1687893,6.01423509 17.1764315,6.01559786 L17.1988177,6.01976438 C17.2231682,6.02467654 17.2471983,6.03047332 17.2708729,6.03711974 C17.2847689,6.04109725 17.2984943,6.04526694 17.3121425,6.04973809 C17.3317977,6.05612249 17.3515792,6.06331574 17.3710585,6.07110396 C17.3887956,6.07819642 17.4060985,6.08567905 17.4232215,6.09367336 C17.4438914,6.10337664 17.4642939,6.11379392 17.484277,6.12487577 C17.4963944,6.13149883 17.5086131,6.13860692 17.5207088,6.14599545 C17.546275,6.1617187 17.5711307,6.17849009 17.5951593,6.19631351 C17.6012086,6.20071786 17.6070733,6.20517454 17.6128994,6.20970461 L17.6148064,6.21126487 L17.625449,6.21968877 C17.6854251,6.26782388 17.7397335,6.32273092 17.787214,6.38324992 L17.7071068,6.29289322 C17.7425008,6.32828727 17.774687,6.36567442 17.8036654,6.40469339 C17.8215099,6.42886931 17.8382813,6.45372505 17.8539326,6.47933981 C17.8613931,6.49138689 17.8685012,6.50360556 17.8753288,6.5159379 C17.8862061,6.53570605 17.8966234,6.5561086 17.9063462,6.57690085 C17.914321,6.5939015 17.9218036,6.61120435 17.9287745,6.62866398 C17.9366843,6.6484208 17.9438775,6.66820232 17.9504533,6.68826359 C17.9552713,6.70314866 17.9599023,6.71853672 17.9641549,6.73400703 C17.9701664,6.75556352 17.9753602,6.77725392 17.9798348,6.7992059 C17.9832978,6.81662474 17.9863719,6.83405099 17.9889822,6.85153313 C17.9905825,6.86176411 17.9920139,6.87254508 17.9932723,6.88337887 L17.9962979,6.9137692 C17.9978436,6.93173451 17.9989053,6.94973363 17.9994829,6.96774538 L18,7 L18,15 C18,15.5522847 17.5522847,16 17,16 C16.4871642,16 16.0644928,15.6139598 16.0067277,15.1166211 L16,15 L16,9.414 L8.70710678,16.7071068 C8.31658249,17.0976311 7.68341751,17.0976311 7.29289322,16.7071068 C6.93240926,16.3466228 6.90467972,15.7793918 7.20970461,15.3871006 L7.29289322,15.2928932 L14.585,7.999 L9,8 C8.44771525,8 8,7.55228475 8,7 C8,6.48716416 8.38604019,6.06449284 8.88337887,6.00672773 L9,6 L17,6 Z"/>
</svg>

<svg xmlns="http://www.w3.org/2000/svg" viewBox="0 0 24 24">
  <path d="M17 6h.02a1 1 0 0 1 .06 0H17a1 1 0 0 1 .18.02h.02a1 1 0 0 1 .41.19l.02.01a1 1 0 0 1 .16.16l-.08-.09a1 1 0 0 1 .28.6v.02a1 1 0 0 1 0 .06L18 7v8a1 1 0 0 1-2 .12V9.4l-7.3 7.3a1 1 0 0 1-1.49-1.32l.08-.1L14.6 8H9a1 1 0 0 1-.12-2H17z"/>
</svg>
